X: 8
T: CURE OF ALL GRIEF
B: "Old English Country Dances", Frank Kidson ed., William Reeves pub., London 1890
Z: 2010-9-26 John Chambers <jc:trillian.mit.edu>
M: 6/8
L: 1/8
K: D
|: d2A d2e | f2g a3 | gfe d2g | fge d3 |\
   d2A d2e | f2g a3 | gfe d2g | fge d3 :|
|: a2g fga | g2f g3 | g2f efg | f2e f3 |\
   d2A d2e | f2g a3 | gfe d2g | fge d3 :|


%%sep 1 1 500

%%sep 1 1 500

